X: 1
T: Captain Lockhart Of The Tartar
M: 4/4
L: 1/8
R: reel
K: Dmaj
dAAF GFED|edef gfec|dBAG FAdB|AFdF D2 D2:|
fadf adfa|gfga bgeg|fadf adfa|geaf d2 de|
fadf adfa|gfga bgeg|fgef deBd|AFdF D2 D2||
